outputs/icons/editor/numbered_list_round.svg

<svg width="1200" height="1200" viewBox="0 0 1200 1200" fill="none" xmlns="http://www.w3.org/2000/svg"><g clip-path="url(#clip0_238_3227)"><path d="M400 350H1000C1027.5 350 1050 327.5 1050 300C1050 272.5 1027.5 250 1000 250H400C372.5 250 350 272.5 350 300C350 327.5 372.5 350 400 350ZM1000 850H400C372.5 850 350 872.5 350 900C350 927.5 372.5 950 400 950H1000C1027.5 950 1050 927.5 1050 900C1050 872.5 1027.5 850 1000 850ZM1000 550H400C372.5 550 350 572.5 350 600C350 627.5 372.5 650 400 650H1000C1027.5 650 1050 627.5 1050 600C1050 572.5 1027.5 550 1000 550ZM225 800H125C111 800 100 811 100 825C100 839 111 850 125 850H200V875H175C161 875 150 886 150 900C150 914 161 925 175 925H200V950H125C111 950 100 961 100 975C100 989 111 1000 125 1000H225C239 1000 250 989 250 975V825C250 811 239 800 225 800ZM125 250H150V375C150 389 161 400 175 400C189 400 200 389 200 375V225C200 211 189 200 175 200H125C111 200 100 211 100 225C100 239 111 250 125 250ZM225 500H125C111 500 100 511 100 525C100 539 111 550 125 550H190L106 648C102 652.5 100 658.5 100 664V675C100 689 111 700 125 700H225C239 700 250 689 250 675C250 661 239 650 225 650H160L244 552C248 547.5 250 541.5 250 536V525C250 511 239 500 225 500Z" fill="black"/></g><defs><clipPath id="clip0_238_3227"><path width="24" fill="white" d="M0 0H1200V1200H0V0z"/></clipPath></defs></svg>

<svg xmlns="http://www.w3.org/2000/svg" width="1200" height="1200" fill="none"><g clip-path="url(#a)"><path fill="#000" d="M400 350h600c27.5 0 50-22.5 50-50s-22.5-50-50-50H400c-27.5 0-50 22.5-50 50s22.5 50 50 50m600 500H400c-27.5 0-50 22.5-50 50s22.5 50 50 50h600c27.5 0 50-22.5 50-50s-22.5-50-50-50m0-300H400c-27.5 0-50 22.5-50 50s22.5 50 50 50h600c27.5 0 50-22.5 50-50s-22.5-50-50-50M225 800H125c-14 0-25 11-25 25s11 25 25 25h75v25h-25c-14 0-25 11-25 25s11 25 25 25h25v25h-75c-14 0-25 11-25 25s11 25 25 25h100c14 0 25-11 25-25V825c0-14-11-25-25-25M125 250h25v125c0 14 11 25 25 25s25-11 25-25V225c0-14-11-25-25-25h-50c-14 0-25 11-25 25s11 25 25 25m100 250H125c-14 0-25 11-25 25s11 25 25 25h65l-84 98c-4 4.5-6 10.5-6 16v11c0 14 11 25 25 25h100c14 0 25-11 25-25s-11-25-25-25h-65l84-98c4-4.5 6-10.5 6-16v-11c0-14-11-25-25-25"/></g><defs><clipPath id="a"><path fill="#fff" d="M0 0h1200v1200H0z"/></clipPath></defs></svg>
